src/images/Ishan/Process3.svg

<svg fill="none" height="300" viewBox="0 0 300 300" width="300" xmlns="http://www.w3.org/2000/svg"><path d="m288 0h-276c-6.62742 0-12 5.37258-12 12v276c0 6.627 5.37258 12 12 12h276c6.627 0 12-5.373 12-12v-276c0-6.62742-5.373-12-12-12z" fill="#fff"/><path d="m215.26 142.13-4.15 18.66-3.36 15.14-2.69 12.07-3.37 15.14-10.99 49.46-136.2901-62.98-10.02-4.63-12.68-5.86-10.02-4.63-12.05001-5.57 6.83001-9.94 5.68-8.27 7.19-10.46 5.68-8.26 63.93-93 67.7101 60.04 12.06 10.69 9.62 8.53 12.06 10.69z" fill="#f1f1f1"/><path d="m164.21 165.63 7.04 12.19 7.04 12.2h-14.08-14.08l7.04-12.2z" fill="#eb0029"/><path d="m124.2 141.68h-29.5201v29.52h29.5201z" fill="#eb0029"/><path d="m145.37 122.87c10.46 0 18.94-8.48 18.94-18.94 0-10.4603-8.48-18.94-18.94-18.94s-18.94 8.4797-18.94 18.94c0 10.46 8.48 18.94 18.94 18.94z" fill="#eb0029"/><g fill="#3f3e54"><path d="m162.42 135.56c-.002-.622.181-1.23.525-1.748s.835-.922 1.409-1.161 1.206-.302 1.816-.181 1.171.42 1.61.86c.44.439.739 1 .86 1.61s.058 1.242-.181 1.816-.643 1.065-1.161 1.409-1.126.527-1.748.525c-.829-.003-1.624-.333-2.21-.92-.587-.586-.917-1.381-.92-2.21zm.52 0c0 .519.154 1.025.442 1.457.289.431.698.766 1.178.964.479.198 1.006.25 1.515.148.508-.102.975-.353 1.341-.72s.615-.835.715-1.344.046-1.036-.153-1.515c-.2-.478-.538-.887-.97-1.173-.432-.287-.939-.439-1.458-.437-.344 0-.684.068-1.001.2-.317.131-.606.324-.848.568-.243.243-.435.532-.565.85-.131.318-.197.658-.196 1.002z"/><path d="m135.42 190.1-4.61-4.95 4.95-4.62 4.61 4.95zm-3.87-4.93 3.9 4.19 4.19-3.91-3.91-4.18z"/><path d="m97.31 119.71-3.76-4 4-3.76 3.76 4zm-3.16-4 3.18 3.41 3.41-3.18-3.18-3.41z"/><path d="m290.38 252.2h-163.04v.52h163.04z"/><path d="m150.07 125.22c-5.168 0-10.22-1.533-14.517-4.404s-7.646-6.952-9.624-11.727c-1.978-4.774-2.495-10.028-1.487-15.0967 1.008-5.0688 3.497-9.7247 7.151-13.379 3.655-3.6544 8.311-6.143 13.379-7.1512 5.069-1.0083 10.323-.4908 15.097 1.4869 4.775 1.9777 8.856 5.3269 11.727 9.6239 2.871 4.2971 4.404 9.349 4.404 14.5171.001 3.432-.674 6.83-1.986 10.001-1.313 3.171-3.238 6.052-5.664 8.479-2.427 2.426-5.308 4.351-8.479 5.664-3.171 1.312-6.569 1.987-10.001 1.986zm0-51.73c-5.066 0-10.017 1.5022-14.229 4.3167s-7.494 6.8149-9.433 11.4951c-1.938 4.6802-2.444 9.83-1.455 14.7982.989 4.968 3.429 9.531 7.011 13.113 3.583 3.581 8.147 6.019 13.116 7.006 4.968.987 10.118.479 14.797-1.461 4.68-1.94 8.679-5.224 11.492-9.437s4.313-9.165 4.311-14.231c0-3.3627-.663-6.6924-1.95-9.799s-3.173-5.9292-5.552-8.3065c-2.378-2.3773-5.201-4.2628-8.308-5.5487s-6.437-1.9471-9.8-1.9458z"/><path d="m133.99 119.415-6.747 14.043.469.225 6.746-14.043z"/><path d="m132.427 152.163-.247.457 29.726 16.087.248-.457z"/><path d="m132.57 171.47h-38.1501v-38.15h38.1501zm-37.6301-.47h37.1101v-37.16h-37.1101z"/><path d="m189.14 190.28h-39.46l19.73-34.17zm-38.56-.52h37.65l-18.82-32.61z"/></g><path d="m238.91 133.58c3.606 0 6.53-2.924 6.53-6.53s-2.924-6.53-6.53-6.53c-3.607 0-6.53 2.924-6.53 6.53s2.923 6.53 6.53 6.53z" fill="#96646b"/><path d="m242.3 130.45s.79 7.84 2.09 9.14-9.14-.78-9.14-.78 1.57-6.53.52-7.58 6.53-.78 6.53-.78z" fill="#96646b"/><path d="m246.88 143.64s3.12 8.89 3.92 14.36c.42 2.595.681 5.213.78 7.84 0 0 3.4 10.45 2.35 15.42 0 0 3.92 11.75.52 11.75s-4.44-9.66-4.44-9.66l-5.22-24.83z" fill="#96646b"/><path d="m248.44 147.82s-.78-9.67-4.18-10.45c-1.62-.37-4.25-.93-6.56-1.4-1.958-.417-4-.177-5.808.684-1.808.86-3.281 2.293-4.192 4.076-.342.667-.569 1.387-.67 2.13-.52 4.18-3.14 4.18-.78 9.67 1.431 3.562 2.053 7.398 1.82 11.23l1.57 13.85s-6.53 18.29-6 30.57l-6 30s1.31 3.14 5 1.57c0 0 9.14-15.41 8.36-26.65l9.4-20.9s6.54 19.86 8.37 21.69l4.7 28.21s4.44 1.31 6.53 0c0 0 .78-27.17-3.66-31.61 0 0-4.44-18.81-3.39-23.78s1.3-12.54-6.54-19.33c0 0 1.05-2.88-2.35-4.44l2.62-8.36z" fill="#2f2e40"/><path d="m232.06 136.69h-.22c-.555-.039-1.112.034-1.638.216s-1.009.468-1.421.842c-.413.374-.745.827-.977 1.333-.232.505-.359 1.053-.374 1.609l-.41 9.29-1.57 10.19-3.39 22s-6.54 7.84-2.09 8.36 5.22-8.62 5.22-8.62l5.75-17.25 2.35-15.93s2.74-2.75 1.6-9.09c-.094-.73-.42-1.41-.929-1.941-.51-.531-1.176-.885-1.901-1.009z" fill="#96646b"/><path d="m217.09 237.18-1.83 9.41s-4.44 2.09-1.57 4.7 6.8-.52 6.8-.52l1-3.14-.26 4.7h.79l.78-4.7s1.57-2.87.52-5.23v-3.13z" fill="#2f2e40"/><path d="m252.76 238.09-1 8.63s-4.44 2.09-1.57 4.7 6.8-.52 6.8-.52l1-3.14-.26 4.7h.78l.79-4.7s1.56-2.87.52-5.22v-3.14z" fill="#2f2e40"/><path d="m242.32 117c-.369.006-.737.043-1.1.11-.649-.313-1.36-.477-2.08-.48h-.14c-3.64 0-6.6 3.3-6.6 7.37h1.22l.2-1.5.29 1.5h1c-.319 1.204-.481 2.444-.48 3.69v7.5h1.85l1.07-2.78-.27 2.78h11.87l1-2.53-.24 2.53h1.34v-5.89c-.06-6.84-4.03-12.3-8.93-12.3z" fill="#2f2e40"/><path d="m279.08 164.82h-.49v87.59h.49z" fill="#3f3e54"/><path d="m278.93 244.9c5.274 0 9.55-9.76 9.55-21.8s-4.276-21.8-9.55-21.8-9.55 9.76-9.55 21.8 4.276 21.8 9.55 21.8z" fill="#3f3e54"/><path d="m278.93 195.19c5.274 0 9.55-9.76 9.55-21.8s-4.276-21.8-9.55-21.8-9.55 9.76-9.55 21.8 4.276 21.8 9.55 21.8z" fill="#3f3e54"/><path d="m279.16 155.58-.47-.14c0-.1 2.91-10-1.82-16.32-2.67-3.59-7.25-5.41-13.62-5.41v-.49c6.53 0 11.25 1.89 14 5.61 4.89 6.55 1.94 16.65 1.91 16.75z" fill="#3f3e54"/><path d="m263.25 139.59c3.38 0 6.12-2.74 6.12-6.12s-2.74-6.12-6.12-6.12-6.12 2.74-6.12 6.12 2.74 6.12 6.12 6.12z" fill="#f1f1f1"/></svg>

<svg width="300" height="300" viewBox="0 0 300 300" fill="none" xmlns="http://www.w3.org/2000/svg">
<path d="M288 0H12C5.37258 0 0 5.37258 0 12V288C0 294.627 5.37258 300 12 300H288C294.627 300 300 294.627 300 288V12C300 5.37258 294.627 0 288 0Z" fill="white"/>
<path d="M215.26 142.13L211.11 160.79L207.75 175.93L205.06 188L201.69 203.14L190.7 252.6L54.4099 189.62L44.3899 184.99L31.7099 179.13L21.6899 174.5L9.63989 168.93L16.4699 158.99L22.1499 150.72L29.3399 140.26L35.0199 132L98.9499 39L166.66 99.04L178.72 109.73L188.34 118.26L200.4 128.95L215.26 142.13Z" fill="#F1F1F1"/>
<path d="M164.21 165.63L171.25 177.82L178.29 190.02H164.21H150.13L157.17 177.82L164.21 165.63Z" fill="#EB0029"/>
<path d="M124.2 141.68H94.6799V171.2H124.2V141.68Z" fill="#EB0029"/>
<path d="M145.37 122.87C155.83 122.87 164.31 114.39 164.31 103.93C164.31 93.4697 155.83 84.99 145.37 84.99C134.91 84.99 126.43 93.4697 126.43 103.93C126.43 114.39 134.91 122.87 145.37 122.87Z" fill="#EB0029"/>
<path d="M162.42 135.56C162.418 134.938 162.601 134.33 162.945 133.812C163.289 133.294 163.78 132.89 164.354 132.651C164.928 132.412 165.56 132.349 166.17 132.47C166.78 132.591 167.341 132.89 167.78 133.33C168.22 133.769 168.519 134.33 168.64 134.94C168.761 135.55 168.698 136.182 168.459 136.756C168.22 137.33 167.816 137.821 167.298 138.165C166.78 138.509 166.172 138.692 165.55 138.69C164.721 138.687 163.926 138.357 163.34 137.77C162.753 137.184 162.423 136.389 162.42 135.56V135.56ZM162.94 135.56C162.94 136.079 163.094 136.585 163.382 137.017C163.671 137.448 164.08 137.783 164.56 137.981C165.039 138.179 165.566 138.231 166.075 138.129C166.583 138.027 167.05 137.776 167.416 137.409C167.782 137.042 168.031 136.574 168.131 136.065C168.231 135.556 168.177 135.029 167.978 134.55C167.778 134.072 167.44 133.663 167.008 133.377C166.576 133.09 166.069 132.938 165.55 132.94C165.206 132.94 164.866 133.008 164.549 133.14C164.232 133.271 163.943 133.464 163.701 133.708C163.458 133.951 163.266 134.24 163.136 134.558C163.005 134.876 162.939 135.216 162.94 135.56V135.56Z" fill="#3F3E54"/>
<path d="M135.42 190.1L130.81 185.15L135.76 180.53L140.37 185.48L135.42 190.1ZM131.55 185.17L135.45 189.36L139.64 185.45L135.73 181.27L131.55 185.17Z" fill="#3F3E54"/>
<path d="M97.31 119.71L93.55 115.71L97.55 111.95L101.31 115.95L97.31 119.71ZM94.15 115.71L97.33 119.12L100.74 115.94L97.56 112.53L94.15 115.71Z" fill="#3F3E54"/>
<path d="M290.38 252.2H127.34V252.72H290.38V252.2Z" fill="#3F3E54"/>
<path d="M150.07 125.22C144.902 125.22 139.85 123.687 135.553 120.816C131.256 117.945 127.907 113.864 125.929 109.089C123.951 104.315 123.434 99.061 124.442 93.9923C125.45 88.9235 127.939 84.2676 131.593 80.6133C135.248 76.9589 139.904 74.4703 144.972 73.4621C150.041 72.4538 155.295 72.9713 160.069 74.949C164.844 76.9267 168.925 80.2759 171.796 84.5729C174.667 88.87 176.2 93.9219 176.2 99.09C176.201 102.522 175.526 105.92 174.214 109.091C172.901 112.262 170.976 115.143 168.55 117.57C166.123 119.996 163.242 121.921 160.071 123.234C156.9 124.546 153.502 125.221 150.07 125.22V125.22ZM150.07 73.49C145.004 73.49 140.053 74.9922 135.841 77.8067C131.629 80.6212 128.347 84.6216 126.408 89.3018C124.47 93.982 123.964 99.1318 124.953 104.1C125.942 109.068 128.382 113.631 131.964 117.213C135.547 120.794 140.111 123.232 145.08 124.219C150.048 125.206 155.198 124.698 159.877 122.758C164.557 120.818 168.556 117.534 171.369 113.321C174.182 109.108 175.682 104.156 175.68 99.09C175.68 95.7273 175.017 92.3976 173.73 89.291C172.443 86.1844 170.557 83.3618 168.178 80.9845C165.8 78.6072 162.977 76.7217 159.87 75.4358C156.763 74.1499 153.433 73.4887 150.07 73.49Z" fill="#3F3E54"/>
<path d="M133.99 119.415L127.243 133.458L127.712 133.683L134.458 119.64L133.99 119.415Z" fill="#3F3E54"/>
<path d="M132.427 152.163L132.18 152.62L161.906 168.707L162.154 168.25L132.427 152.163Z" fill="#3F3E54"/>
<path d="M132.57 171.47H94.4199V133.32H132.57V171.47ZM94.9399 171H132.05V133.84H94.9399V171Z" fill="#3F3E54"/>
<path d="M189.14 190.28H149.68L169.41 156.11L189.14 190.28ZM150.58 189.76H188.23L169.41 157.15L150.58 189.76Z" fill="#3F3E54"/>
<path d="M238.91 133.58C242.516 133.58 245.44 130.656 245.44 127.05C245.44 123.444 242.516 120.52 238.91 120.52C235.303 120.52 232.38 123.444 232.38 127.05C232.38 130.656 235.303 133.58 238.91 133.58Z" fill="#96646B"/>
<path d="M242.3 130.45C242.3 130.45 243.09 138.29 244.39 139.59C245.69 140.89 235.25 138.81 235.25 138.81C235.25 138.81 236.82 132.28 235.77 131.23C234.72 130.18 242.3 130.45 242.3 130.45Z" fill="#96646B"/>
<path d="M246.88 143.64C246.88 143.64 250 152.53 250.8 158C251.22 160.595 251.481 163.213 251.58 165.84C251.58 165.84 254.98 176.29 253.93 181.26C253.93 181.26 257.85 193.01 254.45 193.01C251.05 193.01 250.01 183.35 250.01 183.35L244.79 158.52L246.88 143.64Z" fill="#96646B"/>
<path d="M248.44 147.82C248.44 147.82 247.66 138.15 244.26 137.37C242.64 137 240.01 136.44 237.7 135.97C235.742 135.553 233.7 135.793 231.892 136.654C230.084 137.514 228.611 138.947 227.7 140.73C227.358 141.397 227.131 142.117 227.03 142.86C226.51 147.04 223.89 147.04 226.25 152.53C227.681 156.092 228.303 159.928 228.07 163.76L229.64 177.61C229.64 177.61 223.11 195.9 223.64 208.18L217.64 238.18C217.64 238.18 218.95 241.32 222.64 239.75C222.64 239.75 231.78 224.34 231 213.1L240.4 192.2C240.4 192.2 246.94 212.06 248.77 213.89L253.47 242.1C253.47 242.1 257.91 243.41 260 242.1C260 242.1 260.78 214.93 256.34 210.49C256.34 210.49 251.9 191.68 252.95 186.71C254 181.74 254.25 174.17 246.41 167.38C246.41 167.38 247.46 164.5 244.06 162.94L246.68 154.58L248.44 147.82Z" fill="#2F2E40"/>
<path d="M232.06 136.69H231.84C231.285 136.651 230.728 136.724 230.202 136.906C229.676 137.088 229.193 137.374 228.781 137.748C228.368 138.122 228.036 138.575 227.804 139.081C227.572 139.586 227.445 140.134 227.43 140.69L227.02 149.98L225.45 160.17L222.06 182.17C222.06 182.17 215.52 190.01 219.97 190.53C224.42 191.05 225.19 181.91 225.19 181.91L230.94 164.66L233.29 148.73C233.29 148.73 236.03 145.98 234.89 139.64C234.796 138.91 234.47 138.23 233.961 137.699C233.451 137.168 232.785 136.814 232.06 136.69V136.69Z" fill="#96646B"/>
<path d="M217.09 237.18L215.26 246.59C215.26 246.59 210.82 248.68 213.69 251.29C216.56 253.9 220.49 250.77 220.49 250.77L221.49 247.63L221.23 252.33H222.02L222.8 247.63C222.8 247.63 224.37 244.76 223.32 242.4V239.27L217.09 237.18Z" fill="#2F2E40"/>
<path d="M252.76 238.09L251.76 246.72C251.76 246.72 247.32 248.81 250.19 251.42C253.06 254.03 256.99 250.9 256.99 250.9L257.99 247.76L257.73 252.46H258.51L259.3 247.76C259.3 247.76 260.86 244.89 259.82 242.54V239.4L252.76 238.09Z" fill="#2F2E40"/>
<path d="M242.32 117C241.951 117.006 241.583 117.043 241.22 117.11C240.571 116.797 239.86 116.633 239.14 116.63H239C235.36 116.63 232.4 119.93 232.4 124H233.62L233.82 122.5L234.11 124H235.11C234.791 125.204 234.629 126.444 234.63 127.69V135.19H236.48L237.55 132.41L237.28 135.19H249.15L250.15 132.66L249.91 135.19H251.25V129.3C251.19 122.46 247.22 117 242.32 117Z" fill="#2F2E40"/>
<path d="M279.08 164.82H278.59V252.41H279.08V164.82Z" fill="#3F3E54"/>
<path d="M278.93 244.9C284.204 244.9 288.48 235.14 288.48 223.1C288.48 211.06 284.204 201.3 278.93 201.3C273.656 201.3 269.38 211.06 269.38 223.1C269.38 235.14 273.656 244.9 278.93 244.9Z" fill="#3F3E54"/>
<path d="M278.93 195.19C284.204 195.19 288.48 185.43 288.48 173.39C288.48 161.35 284.204 151.59 278.93 151.59C273.656 151.59 269.38 161.35 269.38 173.39C269.38 185.43 273.656 195.19 278.93 195.19Z" fill="#3F3E54"/>
<path d="M279.16 155.58L278.69 155.44C278.69 155.34 281.6 145.44 276.87 139.12C274.2 135.53 269.62 133.71 263.25 133.71V133.22C269.78 133.22 274.5 135.11 277.25 138.83C282.14 145.38 279.19 155.48 279.16 155.58Z" fill="#3F3E54"/>
<path d="M263.25 139.59C266.63 139.59 269.37 136.85 269.37 133.47C269.37 130.09 266.63 127.35 263.25 127.35C259.87 127.35 257.13 130.09 257.13 133.47C257.13 136.85 259.87 139.59 263.25 139.59Z" fill="#F1F1F1"/>
</svg>
